X:1
T:Title
L:1/8
M:3/4
I:linebreak $
K:G
V:1 treble nm="Voice"
V:1
"G" G2 GF GA | G3"D" A Bd | ^cA AG AB | A4 (3ABc |"D" F2 FE FG | F3 d ed |1"G" BG GF FE | %7
 ED D2 (3Bcd :|2"G" BD EF E2 | G4 PE2 |:"G" D2 B2 A2 | G4 PF2 |"C" E2 c2 B2 |"D7" A4 PG2 | %14
"D" Ff fe ed | de ed dc |1"C" cA Ad dB |"G" BG G2 E2 :|2"C" cA E2"D" F2 |"G" G4 (3Bcd |] %20
